!!!OTL: Der schwatzhafte Junggeselle
!!!OTL-incipit:Es sassen unser viere
!!!ARE: Europa, Mitteleuropa, Deutschland (BRD), Hessen, Oberwesterwald,
!!    Stein - Neukirch
!!!YOR: 6, S. 275
!!    1906 aufgezeichnet (1905/06)
!!!SCT: Q0139F
!!!TXL: @@DE
!!!YEM: Copyright 1995, estate of Helmut Schaffrath.
**kern	**text
*ICvox	*
*M4/4	*
*met(c)	*
*k[f#]	*
*G:	*
{4d	1._Es
=1	=1
4g	sa-
(8f#L	-ßen
8eJ)	.
4d	un-
4g	-ser
=2	=2
4a	vie-
4g	-re
4r}	.
{4d	beim
=3	=3
4g	Wein
(8f#L	und
8eJ)	.
4d	auch
4g	beim
=4	=4
4a	Bie-
4g	-re;
4r}	.
{4b	sie
=5	=5
8.bL	a-
16bJ	-ßen
8.bL	und
16bJ	sie
8.bL	tran-
16aJ	-ken,
8r	.
8b	sie
=6	=6
8.bL	hiel-
16bJ	-ten
8.ddL	ei-
16bJ	-nen
4a	Rat.
8r}	.
{8g	Es
=7	=7
8.f#L	war
16aJ	auch
8aL	ei-
8aJ	-ner
8.aL	drun-
16ddJ	-ter,
4cc	der
=8	=8
8.bL	die-
16bJ	-sen
8.aL	Vor-
16aJ	-chlag
4g}	tat.
==	==
!!!AGN: Ballade, Indiskretion, verweigerter Beischlaf
!!!ONB: ESAC (Essen Associative Code) Database: BALLADE
!!!AMT: simple quadruple
!!!AIN: vox
!!!EED: Helmut Schaffrath
!!!EEV: 1.0
!!@@COMMENT:"A 92019, Stcin-Neukirch, Oberwesterwaldkreis, 1905/06
!!A. Otto Stückrath und Heinrich Selʒer."
!!@@END:
!!!source: Deutsche Volkslieder mit ihren Melodien Balladen. Herausgegeben vom Deutschen Volksliedarchiv. Sechster Band. Freiburg/Breisgau 1976.
!!!page: 275
!!!ENC: Anna Maria Matuszewska
!!!EEV: 2025/03/06
*-	*-
